X:1
T:Over the Hills and Away
M:6/8
L:1/8
Z:AK/FIddler's Companion tradtunes 2001-10-29
K:D
E | ABAa>ef | g>fe dBG| ABA a2e | cba efg |
(ab/a/g/f/)ga/g/f/e/ | dge dBG | ABA aef | edB A2 :|
|: e | cea cea | Bdg dBG| cea Bdg | cea efg |
(ab/a/g/f/) (ga/g/f/e/) | dge dBG | ABA a2e | f2e dBA :|
